blog/securing-istio-addressing-critical-security-gaps-and-best-practices/bypass-sidecar-traffic-hijack.svg

<?xml version="1.0" encoding="UTF-8" standalone="no"?>
<!DOCTYPE svg PUBLIC "-//W3C//DTD SVG 1.1//EN" "http://www.w3.org/Graphics/SVG/1.1/DTD/svg11.dtd">
<svg xmlns:xl="http://www.w3.org/1999/xlink" version="1.1" xmlns="http://www.w3.org/2000/svg" xmlns:dc="http://purl.org/dc/elements/1.1/" viewBox="632 338 801 312" width="801" height="312">
  <defs>
    <marker orient="auto" overflow="visible" markerUnits="strokeWidth" id="FilledArrow_Marker" stroke-linejoin="miter" stroke-miterlimit="10" viewBox="-1 -3 7 6" markerWidth="7" markerHeight="6" color="#666">
      <g>
        <path d="M 4.8 0 L 0 -1.8 L 0 1.8 Z" fill="currentColor" stroke="currentColor" stroke-width="1"/>
      </g>
    </marker>
  </defs>
  <g id="Canvas_1" fill-opacity="1" stroke-opacity="1" stroke="none" stroke-dasharray="none" fill="none">
    <title>Canvas 1</title>
    <rect fill="white" x="632" y="338" width="801" height="312"/>
    <g id="Canvas_1_Layer_1">
      <title>Layer 1</title>
      <g id="Graphic_24">
        <rect x="632" y="338.487" width="800.5" height="311.026" fill="white"/>
      </g>
      <g id="Graphic_21">
        <path d="M 1161 373.919 L 1406 373.919 C 1410.4183 373.919 1414 377.50073 1414 381.919 L 1414 554.331 C 1414 558.7493 1410.4183 562.331 1406 562.331 L 1161 562.331 C 1156.5817 562.331 1153 558.7493 1153 554.331 L 1153 381.919 C 1153 377.50073 1156.5817 373.919 1161 373.919 Z" fill="white"/>
        <path d="M 1161 373.919 L 1406 373.919 C 1410.4183 373.919 1414 377.50073 1414 381.919 L 1414 554.331 C 1414 558.7493 1410.4183 562.331 1406 562.331 L 1161 562.331 C 1156.5817 562.331 1153 558.7493 1153 554.331 L 1153 381.919 C 1153 377.50073 1156.5817 373.919 1161 373.919 Z" stroke="black" stroke-linecap="round" stroke-linejoin="round" stroke-width="1"/>
        <text transform="translate(1158 378.919)" fill="black">
          <tspan font-family="Helvetica Neue" font-size="16" fill="black" x="65.612" y="16" xml:space="preserve">Egress Gateway</tspan>
        </text>
      </g>
      <g id="Graphic_3">
        <path d="M 668.9997 355.5 L 1053 355.5 C 1057.4183 355.5 1061 359.08172 1061 363.5 L 1061 624.5 C 1061 628.9183 1057.4183 632.5 1053 632.5 L 668.9997 632.5 C 664.5814 632.5 660.9997 628.9183 660.9997 624.5 L 660.9997 363.5 C 660.9997 359.08172 664.5814 355.5 668.9997 355.5 Z" fill="white"/>
        <path d="M 668.9997 355.5 L 1053 355.5 C 1057.4183 355.5 1061 359.08172 1061 363.5 L 1061 624.5 C 1061 628.9183 1057.4183 632.5 1053 632.5 L 668.9997 632.5 C 664.5814 632.5 660.9997 628.9183 660.9997 624.5 L 660.9997 363.5 C 660.9997 359.08172 664.5814 355.5 668.9997 355.5 Z" stroke="black" stroke-linecap="round" stroke-linejoin="round" stroke-width="1"/>
        <text transform="translate(665.9997 360.5)" fill="black">
          <tspan font-family="Helvetica Neue" font-size="16" fill="black" x="180.03215" y="16" xml:space="preserve">Pod</tspan>
        </text>
      </g>
      <g id="Graphic_5">
        <path d="M 687.16185 396.25 L 805 396.25 C 809.4183 396.25 813 399.8317 813 404.25 L 813 532 C 813 536.4183 809.4183 540 805 540 L 687.16185 540 C 682.7436 540 679.16185 536.4183 679.16185 532 L 679.16185 404.25 C 679.16185 399.8317 682.7436 396.25 687.16185 396.25 Z" fill="#f0f0f0"/>
        <path d="M 687.16185 396.25 L 805 396.25 C 809.4183 396.25 813 399.8317 813 404.25 L 813 532 C 813 536.4183 809.4183 540 805 540 L 687.16185 540 C 682.7436 540 679.16185 536.4183 679.16185 532 L 679.16185 404.25 C 679.16185 399.8317 682.7436 396.25 687.16185 396.25 Z" stroke="black" stroke-linecap="round" stroke-linejoin="round" stroke-width="1"/>
        <text transform="translate(684.16185 401.25)" fill="black">
          <tspan font-family="Helvetica Neue" font-size="16" fill="black" x="5.607075" y="15" xml:space="preserve">App Containerd</tspan>
        </text>
      </g>
      <g id="Graphic_6">
        <path d="M 850 396.25 L 1034.224 396.25 C 1038.6423 396.25 1042.224 399.8317 1042.224 404.25 L 1042.224 532 C 1042.224 536.4183 1038.6423 540 1034.224 540 L 850 540 C 845.5817 540 842 536.4183 842 532 L 842 404.25 C 842 399.8317 845.5817 396.25 850 396.25 Z" fill="#f0f0f0"/>
        <path d="M 850 396.25 L 1034.224 396.25 C 1038.6423 396.25 1042.224 399.8317 1042.224 404.25 L 1042.224 532 C 1042.224 536.4183 1038.6423 540 1034.224 540 L 850 540 C 845.5817 540 842 536.4183 842 532 L 842 404.25 C 842 399.8317 845.5817 396.25 850 396.25 Z" stroke="black" stroke-linecap="round" stroke-linejoin="round" stroke-width="1"/>
        <text transform="translate(847 401.25)" fill="black">
          <tspan font-family="Helvetica Neue" font-size="16" fill="black" x="67.856" y="15" xml:space="preserve">Sidecar</tspan>
        </text>
      </g>
      <g id="Graphic_8">
        <rect x="1183.388" y="427.279" width="200.224" height="28.447998" fill="#ffff80"/>
        <text transform="translate(1188.388 432.279)" fill="black">
          <tspan font-family="Helvetica Neue" font-size="16" fill="black" x="0" y="15" xml:space="preserve">K8s Service ExternalName</tspan>
        </text>
      </g>
      <g id="Graphic_9">
        <rect x="1183.388" y="471.529" width="177.2" height="28.447998" fill="#ffff80"/>
        <text transform="translate(1188.388 476.529)" fill="black">
          <tspan font-family="Helvetica Neue" font-size="16" fill="black" x="0" y="15" xml:space="preserve">Outbound Traffic Policy</tspan>
        </text>
      </g>
      <g id="Graphic_10">
        <rect x="1183.388" y="515.779" width="159.936" height="28.447998" fill="#ffff80"/>
        <text transform="translate(1188.388 520.779)" fill="black">
          <tspan font-family="Helvetica Neue" font-size="16" fill="black" x="0" y="15" xml:space="preserve">Service Entry Misuse</tspan>
        </text>
      </g>
      <g id="Graphic_12">
        <rect x="755.83785" y="553.5" width="229.168" height="28.447998" fill="#ffff80"/>
        <text transform="translate(760.83785 558.5)" fill="black">
          <tspan font-family="Helvetica Neue" font-size="16" fill="black" x="0" y="15" xml:space="preserve">NET_ADMIN/NET_RAW Abuse</tspan>
        </text>
      </g>
      <g id="Graphic_13">
        <rect x="755.83785" y="590" width="229.04" height="28.447998" fill="#ffff80"/>
        <text transform="translate(760.83785 595)" fill="black">
          <tspan font-family="Helvetica Neue" font-size="16" fill="black" x="0" y="15" xml:space="preserve">Traffic Redirection Annotations</tspan>
        </text>
      </g>
      <g id="Graphic_14">
        <rect x="695.5769" y="428.052" width="101.008" height="46.895996" fill="#ffff80"/>
        <text transform="translate(700.5769 433.052)" fill="black">
          <tspan font-family="Helvetica Neue" font-size="16" fill="black" x="15.28" y="15" xml:space="preserve">Pod UID</tspan>
          <tspan font-family="Helvetica Neue" font-size="16" fill="black" x="8100187e-19" y="33.448" xml:space="preserve">1337 Misuse</tspan>
        </text>
      </g>
      <g id="Graphic_15">
        <rect x="869.848" y="437.276" width="144.528" height="28.447998" fill="#ffff80"/>
        <text transform="translate(874.848 442.276)" fill="black">
          <tspan font-family="Helvetica Neue" font-size="16" fill="black" x="0" y="15" xml:space="preserve">EnvoyFilter Misuse</tspan>
        </text>
      </g>
      <g id="Graphic_19">
        <rect x="859.448" y="474" width="165.328" height="46.895996" fill="#ffff80"/>
        <text transform="translate(864.448 479)" fill="black">
          <tspan font-family="Helvetica Neue" font-size="16" fill="black" x="6536993e-19" y="15" xml:space="preserve">outboundTrafficPolicy</tspan>
          <tspan font-family="Helvetica Neue" font-size="16" fill="black" x="29.952" y="33.448" xml:space="preserve">ALLOW_ANY</tspan>
        </text>
      </g>
      <g id="Line_22">
        <line x1="813" y1="468.125" x2="829.1" y2="468.125" marker-end="url(#FilledArrow_Marker)" stroke="#666" stroke-linecap="round" stroke-linejoin="round" stroke-width="2"/>
      </g>
      <g id="Line_23">
        <line x1="1042.224" y1="468.125" x2="1140.1" y2="468.125" marker-end="url(#FilledArrow_Marker)" stroke="#666" stroke-linecap="round" stroke-linejoin="round" stroke-width="2"/>
      </g>
    </g>
  </g>
</svg>

<svg xmlns="http://www.w3.org/2000/svg" width="801" height="312" viewBox="632 338 801 312"><defs><marker id="a" stroke-linejoin="miter" stroke-miterlimit="10" color="#666" markerHeight="6" markerUnits="strokeWidth" markerWidth="7" orient="auto" overflow="visible" viewBox="-1 -3 7 6"><path fill="currentColor" stroke="currentColor" d="M4.8 0 0-1.8v3.6Z"/></marker></defs><g fill="none"><path fill="#fff" d="M632 338h801v312H632z"/><path fill="#fff" d="M632 338.487h800.5v311.026H632z"/><path fill="#fff" d="M1161 373.919h245a8 8 0 0 1 8 8v172.412a8 8 0 0 1-8 8h-245a8 8 0 0 1-8-8V381.919a8 8 0 0 1 8-8"/><path stroke="#000" stroke-linecap="round" stroke-linejoin="round" d="M1161 373.919h245a8 8 0 0 1 8 8v172.412a8 8 0 0 1-8 8h-245a8 8 0 0 1-8-8V381.919a8 8 0 0 1 8-8"/><text fill="#000" transform="translate(1158 378.919)">
          <tspan xml:space="preserve" x="65.612" y="16" font-family="Helvetica Neue" font-size="16">Egress Gateway</tspan>
        </text><path fill="#fff" d="M669 355.5h384a8 8 0 0 1 8 8v261a8 8 0 0 1-8 8H669a8 8 0 0 1-8-8v-261a8 8 0 0 1 8-8"/><path stroke="#000" stroke-linecap="round" stroke-linejoin="round" d="M669 355.5h384a8 8 0 0 1 8 8v261a8 8 0 0 1-8 8H669a8 8 0 0 1-8-8v-261a8 8 0 0 1 8-8"/><text fill="#000" transform="translate(666 360.5)">
          <tspan xml:space="preserve" x="180.032" y="16" font-family="Helvetica Neue" font-size="16">Pod</tspan>
        </text><path fill="#f0f0f0" d="M687.162 396.25H805a8 8 0 0 1 8 8V532a8 8 0 0 1-8 8H687.162a8 8 0 0 1-8-8V404.25a8 8 0 0 1 8-8"/><path stroke="#000" stroke-linecap="round" stroke-linejoin="round" d="M687.162 396.25H805a8 8 0 0 1 8 8V532a8 8 0 0 1-8 8H687.162a8 8 0 0 1-8-8V404.25a8 8 0 0 1 8-8"/><text fill="#000" transform="translate(684.162 401.25)">
          <tspan xml:space="preserve" x="5.607" y="15" font-family="Helvetica Neue" font-size="16">App Containerd</tspan>
        </text><path fill="#f0f0f0" d="M850 396.25h184.224a8 8 0 0 1 8 8V532a8 8 0 0 1-8 8H850a8 8 0 0 1-8-8V404.25a8 8 0 0 1 8-8"/><path stroke="#000" stroke-linecap="round" stroke-linejoin="round" d="M850 396.25h184.224a8 8 0 0 1 8 8V532a8 8 0 0 1-8 8H850a8 8 0 0 1-8-8V404.25a8 8 0 0 1 8-8"/><text fill="#000" transform="translate(847 401.25)">
          <tspan xml:space="preserve" x="67.856" y="15" font-family="Helvetica Neue" font-size="16">Sidecar</tspan>
        </text><path fill="#ffff80" d="M1183.388 427.279h200.224v28.448h-200.224z"/><text fill="#000" transform="translate(1188.388 432.279)">
          <tspan xml:space="preserve" x="0" y="15" font-family="Helvetica Neue" font-size="16">K8s Service ExternalName</tspan>
        </text><path fill="#ffff80" d="M1183.388 471.529h177.2v28.448h-177.2z"/><text fill="#000" transform="translate(1188.388 476.529)">
          <tspan xml:space="preserve" x="0" y="15" font-family="Helvetica Neue" font-size="16">Outbound Traffic Policy</tspan>
        </text><path fill="#ffff80" d="M1183.388 515.779h159.936v28.448h-159.936z"/><text fill="#000" transform="translate(1188.388 520.779)">
          <tspan xml:space="preserve" x="0" y="15" font-family="Helvetica Neue" font-size="16">Service Entry Misuse</tspan>
        </text><path fill="#ffff80" d="M755.838 553.5h229.168v28.448H755.838z"/><text fill="#000" transform="translate(760.838 558.5)">
          <tspan xml:space="preserve" x="0" y="15" font-family="Helvetica Neue" font-size="16">NET_ADMIN/NET_RAW Abuse</tspan>
        </text><path fill="#ffff80" d="M755.838 590h229.04v28.448h-229.04z"/><text fill="#000" transform="translate(760.838 595)">
          <tspan xml:space="preserve" x="0" y="15" font-family="Helvetica Neue" font-size="16">Traffic Redirection Annotations</tspan>
        </text><path fill="#ffff80" d="M695.577 428.052h101.008v46.896H695.577z"/><text fill="#000" transform="translate(700.577 433.052)">
          <tspan xml:space="preserve" x="15.28" y="15" font-family="Helvetica Neue" font-size="16">Pod UID</tspan>
          <tspan xml:space="preserve" x="0" y="33.448" font-family="Helvetica Neue" font-size="16">1337 Misuse</tspan>
        </text><path fill="#ffff80" d="M869.848 437.276h144.528v28.448H869.848z"/><text fill="#000" transform="translate(874.848 442.276)">
          <tspan xml:space="preserve" x="0" y="15" font-family="Helvetica Neue" font-size="16">EnvoyFilter Misuse</tspan>
        </text><path fill="#ffff80" d="M859.448 474h165.328v46.896H859.448z"/><text fill="#000" transform="translate(864.448 479)">
          <tspan xml:space="preserve" x="0" y="15" font-family="Helvetica Neue" font-size="16">outboundTrafficPolicy</tspan>
          <tspan xml:space="preserve" x="29.952" y="33.448" font-family="Helvetica Neue" font-size="16">ALLOW_ANY</tspan>
        </text><path stroke="#666" stroke-linecap="round" stroke-linejoin="round" stroke-width="2" marker-end="url(#a)" d="M813 468.125h16.1"/><path stroke="#666" stroke-linecap="round" stroke-linejoin="round" stroke-width="2" marker-end="url(#a)" d="M1042.224 468.125h97.876"/></g></svg>
